!!!OTL: Als ich noch jung war und klein, S. 66
!!!id: S0066
**kern
*clefG2
*k[b-]
*F:
{8a
8g
=1
4f
8a
8f
8cc
8dd
=2
*M2/4
4cc}
4r
=3
{8b-
8a
=4
*M3/4
4g
8cc
8b-
8a
16g
16a
=5
4f}
=6
{8a
8g
=7
4f
8a
8f
8cc
8dd
=8
*M2/4
4cc}
4r
=9
{8b-
8a
=10
*M3/4
4g
8cc
8b-
8a
16g
16a
=11
*M2/4
4f}
4r
=12
*M4/4
{4b-
4a
4g
4r
=13
4cc
4b
4cc}
4r
=14
{4dd
8ee
8ff
4cc
8b-
8a
=15
4g
8.cc
16cc
8cc}
4.r
=16
{4b-
8a
8b-
4g
4r
=17
4cc
8b
8dd
4cc}
8r
=18
{8cc
=19
4ff
8ee
8dd
4cc
8a
8b-
=20
*M3/4
8cc
8b-
8a
8g
4f}
==
*-
!!!minrhy: 16
!!!meters: 3/4 4/4 2/4 ]  ZZ[8
!!!cut: Als ich noch jung war und klein, S. 66
!!!reg: Luxemburg
!!!trd: Die Bauernhochzeit in fr&uuml;heren Zeiten
!!!rhy1: X_X_  X__X_X_X_X_  X__0__
!!!rhy2: X_X_  X__X_X_X_XX  X__
!!!key: S0066  16  F 3/4 4/4 2/4 ]  ZZ[8
!!!mod: ACHTTONSKALA DUR ?]  AMBITUS[8
!!!kad: 51515551
!!!akz: 15_21_15_21_4255_6525_4255_+1551_
!!!fot: 'a__b__a__b__c__d__cv_e__
!!!for: 'a__b__a__bv_c__d__e__f__
!!!fok: 'Va_\__Va_\__Va_~d_Va_Md_
!! PHRAS[GEMISCHTTAKTIG]
!!!fkt: Brautlied, Br&auml;utigam, Jugend
!! SPEDENER, G:
!! PR[54] 2K[4] 2G[4] 3K[8] 3G[0] 4A[4] 4Ü[0] 5A[0] 6K[0] 6G[0]
!! 7K[0] 7G[0] 8A[0] MEHR[0] SI[19] ABS[26] SR[8] SP[12]
!! ST[8] 2k[4] 2g[8] 3k[15] 3g[0] 4d[0] 4ü[0] 5d[0] 6k[0] 6g[0]
!! 7k[0] 7g[0] 8d[0] mehr[0] si[27] dm[-8] sr[12] sp[15]
!! 1F[31] 2F[38] 3F[21] 4F[0] LF[0] 2P[10] 3P[0] 4P[0] TRI[0] DF[4] AB[29]
!! TF[0] U3K[0] U3[0] U4[0] U4Ü[0] U5[0] U6K[0] U6[0] U7K[0] U7[0]
!! N1[0] N2K[0] N2[7] N3K[0] N3[37] N4[22] N4Ü[0] N5[33] N6K[0] N6[0]
!!!n7k: 0] N7[0] O1[0] O2K[0] O2[0] O3K[0] O3[0] HÖ[0
!!!RNB: symbol: &auml;      = a umlaut  (UTF-8: Å„)
!!!RNB: symbol: &uuml;  = u umlaut (UTF-8: Ã¼)
